X:1
T:Title
%%score [ 1 2 3 ( 4 5 ) ]
L:1/8
Q:1/4=40
M:3/8
K:A
V:1 treble nm="Soprano" snm="S"
V:2 treble nm="Alto" snm="A"
V:3 treble-8 nm="Tenor" snm="T"
V:4 bass nm="Bass" snm="B"
V:5 bass 
V:1
 cAc | e2 d | cAB/c/ | e2 d | c3 | cAc | d2 d | cAB/c/ | d2 B | A3- | A3 | %11
w: Dol- * ça|Ca- ta-|lu- nya Pa- tria|del meu|cor|quan- * de|tu s'a-|llu- nya d'e- nyo-|ran- çaes|mor.||
w: |||||||||||
[K:Amin][M:2/4][Q:1/4=50][Q:1/4=50][Q:1/4=50][Q:1/4=50] A2 cB | c4- | c2 z E | AA cB | c2 d2- | %16
w: Her- mo- sa|vall|* bres-|sol de main- fan-|te- sa|
w: A- déu, ger-|mans,|* a-|déu si au mon|pa- re|
 d4 | cB AB | ^G3 z | A2 cB | c4- | c2 z E | AA cB |[M:3/4] c2 d4 |[M:2/4] e4- | ed/c/ Bc | A3 z | %27
w: |blanc * Pi- ri-|neu|Mar- ges i|rius|* er-|mi- tael cel sus-|pe- sa|per|* * * sem- prea-|déu.|
w: |nous * veu- ré|més|Oh, sial fos-|sar|* on|jau ma dol- ça|ma- re|joel|* * * llit tin-|gués|
 E2 EE | E2 z E | ^GA Bc | d4- | d2 c2 | A2 BB | c4- | c3 z | A2 cB | c4- | c2 z E | AA cB | %39
w: Ar- pes del|bosc pin-|san i ca- der-|ne-|* res,|can- tau, can-|tau||jo dic plo-|rant|* a|bos- cos i ri-|
w: Oh, ma- ri-|ners, el|vent que m'en des-|ter-|* ra|que'm fa so-|frir||es- tic ma-|lalt|* més|ai! tor- neu- mea|
[M:3/4] c2 d4 |[M:2/4] (e4- | ed/c/) Bc | A4- | A3 z |] %44
w: be- res|a-|* * * déu si-|au.||
w: ter- ra|quehi|* * * vull mo-|rir.||
V:2
 E2 E | z FG | AFF/F/ | F2 G/F/ | ^E3 | F2 F | F2 F | FFF/F/ | FDD | C3- | C3 | %11
w: Dol- ça|Ca- ta-|lu- nya Pa- tria|del meu *|cor|quan- de|tu s'a-|llu- nya d'e- nyo-|ran- * çaes|mor.||
w: |||||||||||
[K:Amin][M:2/4] C2 ED | E4- | E2 z E | CC ED | E2 F2- | F4 | E2 EF | E3 z | C2 ED | E4- | E2 z E | %22
w: Her- mo- sa|vall|* bres-|sol de main- fan-|te- sa||blanc Pi- ri-|neu|Mar- ges i|rius|* er-|
w: A- déu, ger-|mans,|* a-|déu si au mon|pa- re||nous veu- ré|més|Oh, sial fos-|sar|* on|
 CC ED |[M:3/4] E2 F2 A2 |[M:2/4] ^G4- | Gd/c/ Bc | A3 z | E2 EE | E2 z E | EE FE | D2 F2 | E4 | %32
w: mi- tael cel sus-|pe- sa *|per|* * * sem- prea-|déu.|Ar- pes del|bosc pin-|san i ca- der-|ne- *|res,|
w: jau ma dol- ça|ma- re *|joel|* * * llit tin-|gués|Oh, ma- ri-|ners, el|vent que m'en des-|ter- *|ra|
 C2 DD | E4- | E3 z | C2 ED | E4- | E2 z E | CC ED |[M:3/4] E2 F2 A2 |[M:2/4] (^G4- | Gd/c/) Bc | %42
w: can- tau, can-|tau||jo dic plo-|rant|* a|bos- cos i ri-|be- res *|a-|* * * déu si-|
w: que'm fa so-|frir||es- tic ma-|lalt|* més|ai! tor- neu- mea|ter- ra *|quehi|* * * vull mo-|
 A4- | A3 z |] %44
w: au.||
w: rir.||
V:3
 A2 A | z AB | AAG/A/ | c2 B | G3 | AFA | B2 G | AFG/A/ | BFF/G/ | A3- | A3 | %11
w: Dol- ça|Ca- ta-|lu- nya Pa- tria|del meu|cor|quan- * de|tu s'a-|llu- nya d'e- nyo-|ran- * ça es|mor.||
w: |||||||||||
[K:Amin][M:2/4] E2 AA | A4- | A2 z E | EE AA | A2 A2- | A4 | A2 Ad | B3 z | E2 AA | A4- | A2 z E | %22
w: Her- mo- sa|vall|* bres-|sol de main- fan-|te- sa||blanc Pi- ri-|neu|Mar- ges i|rius|* er-|
w: A- déu, ger-|mans,|* a-|déu si au mon|pa- re||nous veu- ré|més|Oh, sial fos-|sar|* on|
 EE AA |[M:3/4] A2 A4 |[M:2/4] B4- | Bd/c/ Bc | A3 z | E2 EE | E2 z E | E^F ^GA | B4- | B2 A2 | %32
w: mi- tael cel sus-|pe- sa|per|* * * sem- prea-|déu.|Ar- pes del|bosc pin-|san i ca- der-|ne-|* res,|
w: jau ma dol- ça|ma- re|joel|* * * llit tin-|gués|Oh, ma- ri-|ners, el|vent que m'en des-|ter-|* ra|
 A2 GG | G4- | G3 z | E2 AA | A4- | A2 z E | EE AA |[M:3/4] A2 A4 |[M:2/4] (B4- | Bd/c/) Bc | A4- | %43
w: can- tau, can-|tau||jo dic plo-|rant|* a|bos- cos i ri-|be- res|a-|* * * déu si-|au.|
w: que'm fa so-|frir||es- tic ma-|lalt|* més|ai! tor- neu- mea|ter- ra|quehi|* * * vull mo-|rir.|
 A3 z |] %44
w: |
w: |
V:4
 A,,2 A,, | A,,2 A,, | A,,A,,F,,/F,,/ | z B,,B,, | C,3 | F,2 F, | B,,2 B,, | F,F,F,/F,/ | B,,2 E, | %9
w: Dol- ça|Ca- ta-|lu- nya Pa- tria|del meu|cor|quan- de|tu s'a-|llu- nya d'e- nyo-|ran- çaes|
w: |||||||||
 E,3- | E,3 |[K:Amin][M:2/4] A,,2 A,,A,, | A,,4- | A,,2 z E, | A,,A,, A,,A,, | A,,2 A,,2- | A,,4 | %17
w: mor.||Her- mo- sa|vall|* bres-|sol de main- fan-|te- sa||
w: ||A- déu, ger-|mans,|* a-|déu si au mon|pa- re||
 A,,2 C,D, | E,3 z | A,,2 A,,A,, | A,,4- | A,,2 z E, | A,,A,, A,,A,, |[M:3/4] A,,2 F,4 | %24
w: blanc Pi- ri-|neu|Mar- ges i|rius|* er-|mi- tael cel sus-|pe- sa|
w: nous veu- ré|més|Oh, sial fos-|sar|* on|jau ma dol- ça|ma- re|
[M:2/4] E,4- | E,D,/C,/ B,,C, | A,,3 z | E,2 E,E, | E,2 z E, | E,E, D,C, | B,,A,, ^G,,2 | A,,4 | %32
w: per|* * * sem- prea-|déu.|Ar- pes del|bosc pin-|san i ca- der-|ne- * *|res,|
w: joel|* * * llit tin-|gués|Oh, ma- ri-|ners, el|vent que m'en des-|ter- * *|ra|
 F,2 D,D, | C,4- | C,3 z | A,,2 A,,A,, | A,,4- | A,,2 z E, | A,,A,, A,,A,, |[M:3/4] A,,2 F,4 | %40
w: can- tau, can-|tau||jo dic plo-|rant|* a|bos- cos i ri-|be- res|
w: que'm fa so-|frir||es- tic ma-|lalt|* més|ai! tor- neu- mea|ter- ra|
[M:2/4] (E,4- | E,D,/C,/) B,,C, | A,,4- | A,,3 z |] %44
w: a-|* * * déu si-|au.||
w: quehi|* * * vull mo-|rir.||
V:5
 x3 | x3 | x3 | x3 | x3 | x3 | x3 | x3 | x3 | A,,3- | A,,3 |[K:Amin][M:2/4] x4 | x4 | x4 | x4 | %15
 x4 | x4 | x4 | x4 | x4 | x4 | x4 | x4 |[M:3/4] x6 |[M:2/4] x4 | x4 | x4 | x4 | x4 | x4 | x4 | x4 | %32
 x4 | x4 | x4 | x4 | x4 | x4 | x4 |[M:3/4] x6 |[M:2/4] x4 | x4 | x4 | x4 |] %44

